public/icon/16/person.svg

<svg viewBox="0 0 16 16">
  <g class="person">
    <path d="M9.84 9.7v-.03c.9-.72 1.49-1.94 1.49-3.33v-2c0-1.21 0-2-.67-2.67C10 1 9.33 1 8.67 1c-.6 0-.66.54-1.64.65-1.37.15-2.36 1.37-2.36 2.74v1.94c0 1.39.59 2.62 1.49 3.33v.03c-.09 1.21-.93 1.21-2.09 1.57-.62.19-1.14.4-1.56.59-.71.33-1.17 1.04-1.17 1.82V14c0 .55.45 1 1 1h11.33c.55 0 1-.45 1-1v-.32c0-.78-.45-1.49-1.17-1.82-.42-.19-.95-.4-1.56-.59-1.16-.36-2.01-.36-2.1-1.57Z" class="fill-(--icon-fill) stroke-current stroke-2 sl-r"/>
  </g>
</svg>

<svg width="16" height="16" viewBox="0 0 16 16" fill="none" xmlns="http://www.w3.org/2000/svg">
<path d="M9.84 9.7V9.67C10.74 8.95 11.33 7.73 11.33 6.34V4.34C11.33 3.13 11.33 2.34 10.66 1.67C10 1 9.33 1 8.67 1C8.07 1 8.01 1.54 7.03 1.65C5.66 1.8 4.67 3.02 4.67 4.39V6.33C4.67 7.72 5.26 8.95 6.16 9.66V9.69C6.07 10.9 5.23 10.9 4.07 11.26C3.45 11.45 2.93 11.66 2.51 11.85C1.8 12.18 1.34 12.89 1.34 13.67V14C1.34 14.55 1.79 15 2.34 15H13.67C14.22 15 14.67 14.55 14.67 14V13.68C14.67 12.9 14.22 12.19 13.5 11.86C13.08 11.67 12.55 11.46 11.94 11.27C10.78 10.91 9.93 10.91 9.84 9.7Z" fill="white" stroke="#092E24" stroke-width="2" stroke-miterlimit="10" stroke-linecap="round" stroke-linejoin="round"/>
</svg>
